src/svg/uf20d-buysellads.svg

<!-- Generated by IcoMoon.io -->
<svg version="1.1" xmlns="http://www.w3.org/2000/svg" width="27" height="32" viewBox="0 0 27 32">
<path d="M16.339 19.393h-5.25l2.625-9.839zM17.875 25.143h5.554l-5.786-18.286h-7.857l-5.786 18.286h5.554l6.839-5.607zM27.429 7.429v17.143c0 2.821-2.321 5.143-5.143 5.143h-17.143c-2.821 0-5.143-2.321-5.143-5.143v-17.143c0-2.821 2.321-5.143 5.143-5.143h17.143c2.821 0 5.143 2.321 5.143 5.143z"></path>
</svg>

<svg xmlns="http://www.w3.org/2000/svg" width="27" height="32"><path d="M16.339 19.393h-5.25l2.625-9.839zm1.536 5.75h5.554L17.643 6.857H9.786L4 25.143h5.554l6.839-5.607zm9.554-17.714v17.143c0 2.821-2.321 5.143-5.143 5.143H5.143C2.322 29.715 0 27.394 0 24.572V7.429c0-2.821 2.321-5.143 5.143-5.143h17.143c2.821 0 5.143 2.321 5.143 5.143z"/></svg>
